src/svg/24/search_slash_outline_24.svg

<svg fill="none" height="24" viewBox="0 0 24 24" width="24" xmlns="http://www.w3.org/2000/svg"><g clip-rule="evenodd" fill="currentColor" fill-rule="evenodd"><path d="m10.75 5.3c-.3492 0-.6899.03273-1.01956.09505-.48841.09233-.95919-.22875-1.05152-.71715-.09234-.48841.22874-.95919.71715-1.05153.43931-.08305.89203-.12637 1.35393-.12637 4.0041 0 7.25 3.24594 7.25 7.25 0 .4644-.0438.9194-.1277 1.3609-.0928.4883-.5639.809-1.0522.7161-.4883-.0928-.8089-.5639-.7161-1.0522.063-.3312.096-.6737.096-1.0248 0-3.00995-2.44-5.45-5.45-5.45z"/><path d="m3.50003 10.75c0 4.0041 3.24594 7.25 7.24997 7.25 1.6769 0 3.2224-.5703 4.4506-1.5265l4.2629 4.2629c.3515.3515.9213.3515 1.2728 0s.3515-.9213 0-1.2728l-16.2-16.2c-.35147-.35147-.92132-.35147-1.27279 0-.35147.35148-.35147.92132 0 1.2728l1.763 1.763c-.95615 1.22816-1.52648 2.77355-1.52648 4.4506zm1.8 0c0 3.01 2.44005 5.45 5.44997 5.45 1.1808 0 2.2725-.3746 3.1648-1.0124l-7.60241-7.60233c-.63776.89235-1.01236 1.98411-1.01236 3.16473z"/></g></svg>

<svg width="24" height="24" viewBox="0 0 24 24" fill="none" xmlns="http://www.w3.org/2000/svg">
<path fill-rule="evenodd" clip-rule="evenodd" d="M10.75 5.3C10.4008 5.3 10.0601 5.33273 9.73044 5.39505C9.24203 5.48738 8.77125 5.1663 8.67892 4.6779C8.58658 4.18949 8.90766 3.71871 9.39607 3.62637C9.83538 3.54332 10.2881 3.5 10.75 3.5C14.7541 3.5 18 6.74594 18 10.75C18 11.2144 17.9562 11.6694 17.8723 12.1109C17.7795 12.5992 17.3084 12.9199 16.8201 12.827C16.3318 12.7342 16.0112 12.2631 16.104 11.7748C16.167 11.4436 16.2 11.1011 16.2 10.75C16.2 7.74005 13.76 5.3 10.75 5.3Z" fill="currentColor"/>
<path fill-rule="evenodd" clip-rule="evenodd" d="M3.50003 10.75C3.50003 14.7541 6.74597 18 10.75 18C12.4269 18 13.9724 17.4297 15.2006 16.4735L19.4635 20.7364C19.815 21.0879 20.3848 21.0879 20.7363 20.7364C21.0878 20.3849 21.0878 19.8151 20.7363 19.4636L4.5363 3.2636C4.18483 2.91213 3.61498 2.91213 3.26351 3.2636C2.91204 3.61508 2.91204 4.18492 3.26351 4.5364L5.02651 6.2994C4.07036 7.52756 3.50003 9.07295 3.50003 10.75ZM5.30003 10.75C5.30003 13.76 7.74008 16.2 10.75 16.2C11.9308 16.2 13.0225 15.8254 13.9148 15.1876L6.31239 7.58527C5.67463 8.47762 5.30003 9.56938 5.30003 10.75Z" fill="currentColor"/>
</svg>
